X:1
T:The Swallow's Tail
M:C
L:1/8
Q:80
C:Arranged by Dave Rickard
S:Reel
K:HP
ag | \
{aef}e2{A}ed{g}eA{g}A{d}A | \
e{g}e{A}ef{gf}g2{a}ge | \
ge{g}dBdG{g}G{d}G |
{g}B{d}GBd{gf}g2ag | \
e{g}e{A}ed{g}eA{gAGAG}A2 | \
e{g}e{A}ef{gf}g2{a}fg |
a{g}a{g}agag{a}ef | \
ge{g}dBAB{g}cd|]
{g}ea{g}aga{g}a{g}ag |
{a}edef{gf}g2{a}ge | \
ge{g}dBdG{g}G{d}G | \
{g}B{d}GBd{gf}g2{a}fd |
{g}ea{g}aga{g}a{g}ag | \
e{g}e{A}ef{gf}g2{a}fg | \
{ag}a2{g}agag{a}ef |
gedBAg{a}fg|]
{g}eA{g}c{d}A{g}eA{g}c{d}A | \
{g}cd{g}efgedB |
{gGd}G2BGdG{g}B{d}G | \
{g}((3Bcd){g}ef{gf}g2{a}fg | \
{g}eA{g}c{d}A{g}eA{g}c{d}A |
{g}cd{g}ef{a}{f}g2{a}fg | \
afge{g}dBGB | \
{g}Ac{g}B{d}G{g}A2cd|]
{g}eaga{a}eaga | \
ed{g}efgedB | \
{gGd}G2{g}B{d}GdG{g}B{d}G |
{g}((3Bcd){g}ef{gf}g2{a}fg | \
{g}eaga{a}eaga | \
e{g}e{A}ef{gf}g2{a}fg |
afge{g}dBGB | \
{g}Ac{g}B{d}G{g}A4|]
